packages/calcite-ui-icons/icons/raster-function-history-16.svg

<?xml version="1.0" encoding="UTF-8"?><svg id="icons" xmlns="http://www.w3.org/2000/svg" viewBox="0 0 16 16"><defs><style>.cls-1{fill:none;}.cls-1,.cls-2,.cls-3,.cls-4{stroke-width:0px;}.cls-2{opacity:.5;}.cls-3{opacity:.25;}</style></defs><path class="cls-2" d="M1,7h2v2H1v-2ZM4,1v2h2V1h-2Z"/><path class="cls-4" d="M12,5h-1v-3h1v2h2v1h-2ZM7.39752,10H0V0h8.58337c-.34949.29742-.67163.62384-.93414,1h-.64923v1.32654c-.17975.52911-.29999,1.08527-.29999,1.67346,0,.60559.1087,1.18463.29999,1.72577v.27423h.10565c.14801.35364.33075.68939.54913,1h-.65479v2h.64099c-.09784.27319-.18225.57056-.23181.92578l-.01166.07422ZM3,6.99994H1v2.00006h2v-2.00006ZM3,3.99994H1v2h2v-2ZM3,1H1v1.99994h2v-1.99994ZM6,7l-2-.00006v2.00006h2v-2ZM6,4l-2-.00006v2l2,.00006v-2ZM6,1h-2v1.99994l2,.00006V1ZM8.00897,4c0-2.20917,1.80786-4,4.04901-4s3.94202,1.79083,3.94202,4c0,2.20905-1.70087,4-3.94202,4-.01343,0-.02576-.00378-.03912-.00391-.04742-.28851-.2085-.55341-.47491-.70703-.4082-.23535-.91309-.26074-1.11133-.26074-.25244,0-.55267.02771-.86493.1084-.94757-.73224-1.55872-1.85791-1.55872-3.13672ZM9,4c0,1.65411,1.34589,3,3,3s3-1.34589,3-3-1.34589-3-3-3-3,1.34589-3,3ZM10.28455,8.78809c.19055,0,.36957.04199.53882.10596l.22101-.73914c-.14618-.08398-.40063-.12659-.61188-.12659-1.32898,0-1.86841.85474-2.03577,2.05768l-.15057.92682h-1.07635l-.17316.98718h1.07574l-.52332,4h.82367l.52332-4h1.203l.1731-.98718h-1.20233l.11766-.74719c.12605-.85535.24171-1.47754,1.09706-1.47754ZM14.98816,11.01282l-1.50183,1.79102-1.06598-1.79102h-1.08789l1.46106,2.30243-2.41931,2.68475h1.03314l1.85431-2.15265,1.27911,2.15265h1.0976l-1.68445-2.68475,2.04608-2.30243h-1.01184Z"/><rect class="cls-1" width="16" height="16"/><path class="cls-3" d="M6,7v2h-2v-2h2ZM1,3h2V1H1v2Z"/></svg>

<svg xmlns="http://www.w3.org/2000/svg" viewBox="0 0 16 16"><path d="M1 7h2v2H1V7zm3-6v2h2V1H4z" opacity=".5" stroke-width="0"/><path d="M12 5h-1V2h1v2h2v1h-2zm-4.602 5H0V0h8.583c-.35.297-.671.624-.934 1H7v1.327c-.18.529-.3 1.085-.3 1.673 0 .606.109 1.185.3 1.726V6h.106c.148.354.33.69.549 1H7v2h.641c-.098.273-.182.57-.232.926L7.398 10zM3 7H1v2h2V7zm0-3H1v2h2V4zm0-3H1v2h2V1zm3 6H4v2h2V7zm0-3H4v2h2V4zm0-3H4v2h2V1zm2.009 3c0-2.21 1.808-4 4.049-4S16 1.79 16 4c0 2.209-1.7 4-3.942 4-.013 0-.026-.004-.04-.004a.989.989 0 0 0-.474-.707c-.408-.235-.913-.26-1.111-.26-.253 0-.553.027-.865.108A3.95 3.95 0 0 1 8.009 4zM9 4c0 1.654 1.346 3 3 3s3-1.346 3-3-1.346-3-3-3-3 1.346-3 3zm1.285 4.788c.19 0 .37.042.538.106l.221-.74c-.146-.083-.4-.126-.612-.126-1.328 0-1.868.855-2.035 2.058l-.15.927H7.17L6.997 12h1.075l-.523 4h.824l.523-4H10.1l.173-.987H9.07l.117-.747c.127-.856.242-1.478 1.098-1.478zm4.703 2.225l-1.502 1.79-1.066-1.79h-1.088l1.462 2.302L10.374 16h1.033l1.855-2.153L14.54 16h1.097l-1.684-2.685L16 11.013h-1.012z" stroke-width="0"/><path stroke-width="0" fill="none" d="M0 0h16v16H0z"/><path d="M6 7v2H4V7h2zM1 3h2V1H1v2z" opacity=".25" stroke-width="0"/></svg>
